public/icons/infura.svg

<svg width="74" height="63" viewBox="0 0 74 63" fill="none" xmlns="http://www.w3.org/2000/svg">
<path fill-rule="evenodd" clip-rule="evenodd" d="M2.15695 0V9.568L24.9985 7.18984H33.4051V22.6756L19.2466 26.9895L0 31.6353L2.87594 40.9821L21.293 33.9028L33.4051 30.1973V55.583H24.9985L2.15695 53.2048V62.7728H71.8431V53.2048L49.0568 55.583H40.5949V30.1973L52.707 33.9028L71.1794 40.9821L74 31.6353L54.864 26.9895L40.5949 22.6756V7.18984H49.0568L71.8431 9.568V0H2.15695Z" fill="#FE6A49"/>
</svg>

<svg width="74" height="63" fill="none" xmlns="http://www.w3.org/2000/svg"><path fill-rule="evenodd" clip-rule="evenodd" d="M2.157 0v9.568L24.998 7.19h8.407v15.486L19.247 26.99 0 31.634l2.876 9.347 18.417-7.08 12.112-3.705v25.386h-8.407L2.157 53.205v9.568h69.686v-9.568l-22.786 2.378h-8.462V30.197l12.112 3.706 18.472 7.08L74 31.634 54.864 26.99l-14.27-4.313V7.19h8.463l22.786 2.378V0H2.157Z" fill="#FE6A49"/></svg>
